X:91
T: Da liang peng
N: C1584
O: China, Jiangsu, Kunshan
S: III, 491]
R: Shange]
M: 2/4
L: 1/16
K: D
A2A2F2A2 | A2FEF2A2 | B2B2B2A2 | BAB4d2 | d2BAFAFE | F8
A2A2F2A2 | BAB4d2 | d2BAFAFE | F8
A4A2d2 | BdBAF3E | F2BdBAF2 | E2E4F2 | D2EED2A,2 | B,8
e2fed2e2 | B3dB2A2 | F2BdBAF2 | E2E4F2 | D2EED2A,2 | B,8

